actions/16/go-first.svg

<?xml version="1.0" encoding="UTF-8" standalone="no"?>
<svg
   xmlns:dc="http://purl.org/dc/elements/1.1/"
   xmlns:cc="http://creativecommons.org/ns#"
   xmlns:rdf="http://www.w3.org/1999/02/22-rdf-syntax-ns#"
   xmlns:svg="http://www.w3.org/2000/svg"
   xmlns="http://www.w3.org/2000/svg"
   xmlns:xlink="http://www.w3.org/1999/xlink"
   version="1.1"
   width="16"
   height="16"
   id="svg4524">
  <defs
     id="defs4526">
    <linearGradient
       id="linearGradient2867-449-88-871-390-598-476-591-434-148-57-177-641-289-620-227-114-444-680-744-4-1">
      <stop
         id="stop5430-5-0"
         style="stop-color:#737373;stop-opacity:1"
         offset="0" />
      <stop
         id="stop5432-2-0"
         style="stop-color:#636363;stop-opacity:1"
         offset="0.26238" />
      <stop
         id="stop5434-9-6"
         style="stop-color:#4b4b4b;stop-opacity:1"
         offset="0.704952" />
      <stop
         id="stop5436-2-7"
         style="stop-color:#3f3f3f;stop-opacity:1"
         offset="1" />
    </linearGradient>
    <radialGradient
       cx="16.202444"
       cy="-19.005346"
       r="19.99999"
       fx="16.202444"
       fy="-19.005346"
       id="radialGradient3769"
       xlink:href="#linearGradient2867-449-88-871-390-598-476-591-434-148-57-177-641-289-620-227-114-444-680-744-4-1"
       gradientUnits="userSpaceOnUse"
       gradientTransform="matrix(0,1.5000006,-1.5241254,0,-16.959842,-23.077676)" />
    <radialGradient
       cx="16.202444"
       cy="-19.005346"
       r="19.99999"
       fx="16.202444"
       fy="-19.005346"
       id="radialGradient3896"
       xlink:href="#linearGradient2867-449-88-871-390-598-476-591-434-148-57-177-641-289-620-227-114-444-680-744-4-1"
       gradientUnits="userSpaceOnUse"
       gradientTransform="matrix(0,1.5000006,-1.5241254,0,-17.131885,-23.077676)" />
    <radialGradient
       cx="16.202444"
       cy="-19.005346"
       r="19.99999"
       fx="16.202444"
       fy="-19.005346"
       id="radialGradient3896-0"
       xlink:href="#linearGradient2867-449-88-871-390-598-476-591-434-148-57-177-641-289-620-227-114-444-680-744-4-1-5"
       gradientUnits="userSpaceOnUse"
       gradientTransform="matrix(0,1.2955087,-1.315286,0,-15.262017,-22.270403)" />
    <linearGradient
       id="linearGradient2867-449-88-871-390-598-476-591-434-148-57-177-641-289-620-227-114-444-680-744-4-1-5">
      <stop
         id="stop5430-5-0-9"
         style="stop-color:#737373;stop-opacity:1"
         offset="0" />
      <stop
         id="stop5432-2-0-0"
         style="stop-color:#636363;stop-opacity:1"
         offset="0.26238" />
      <stop
         id="stop5434-9-6-8"
         style="stop-color:#4b4b4b;stop-opacity:1"
         offset="0.704952" />
      <stop
         id="stop5436-2-7-0"
         style="stop-color:#3f3f3f;stop-opacity:1"
         offset="1" />
    </linearGradient>
    <linearGradient
       id="linearGradient2264">
      <stop
         id="stop2266"
         style="stop-color:#d7e866;stop-opacity:1"
         offset="0" />
      <stop
         id="stop2268"
         style="stop-color:#8cab2a;stop-opacity:1"
         offset="1" />
    </linearGradient>
    <linearGradient
       id="linearGradient2867-449-88-871-390-598-476-591-434-148-57-177-641-289-620-227-114-444-680-744-4-1-9">
      <stop
         id="stop5430-5-0-3"
         style="stop-color:#737373;stop-opacity:1"
         offset="0" />
      <stop
         id="stop5432-2-0-5"
         style="stop-color:#636363;stop-opacity:1"
         offset="0.26238" />
      <stop
         id="stop5434-9-6-0"
         style="stop-color:#4b4b4b;stop-opacity:1"
         offset="0.704952" />
      <stop
         id="stop5436-2-7-9"
         style="stop-color:#3f3f3f;stop-opacity:1"
         offset="1" />
    </linearGradient>
    <linearGradient
       id="linearGradient2867-449-88-871-390-598-476-591-434-148-57-177-641-289-620-227-114-444-680-744-4-1-5-4">
      <stop
         id="stop5430-5-0-9-1"
         style="stop-color:#737373;stop-opacity:1"
         offset="0" />
      <stop
         id="stop5432-2-0-0-3"
         style="stop-color:#636363;stop-opacity:1"
         offset="0.26238" />
      <stop
         id="stop5434-9-6-8-8"
         style="stop-color:#4b4b4b;stop-opacity:1"
         offset="0.704952" />
      <stop
         id="stop5436-2-7-0-9"
         style="stop-color:#3f3f3f;stop-opacity:1"
         offset="1" />
    </linearGradient>
    <radialGradient
       cx="16.202444"
       cy="-19.005346"
       r="19.99999"
       fx="16.202444"
       fy="-19.005346"
       id="radialGradient3896-0-4"
       xlink:href="#linearGradient2867-449-88-871-390-598-476-591-434-148-57-177-641-289-620-227-114-444-680-744-4-1-5-4"
       gradientUnits="userSpaceOnUse"
       gradientTransform="matrix(0,1.5000006,-1.5241254,0,-15.131754,-23.077676)" />
    <radialGradient
       cx="16.202444"
       cy="-19.005346"
       r="19.99999"
       fx="16.202444"
       fy="-19.005346"
       id="radialGradient3896-4"
       xlink:href="#linearGradient2867-449-88-871-390-598-476-591-434-148-57-177-641-289-620-227-114-444-680-744-4-1-58"
       gradientUnits="userSpaceOnUse"
       gradientTransform="matrix(0,1.5000006,-1.5241254,0,-17.131885,-23.077676)" />
    <radialGradient
       cx="16.202444"
       cy="-19.005346"
       r="19.99999"
       fx="16.202444"
       fy="-19.005346"
       id="radialGradient3769-6"
       xlink:href="#linearGradient2867-449-88-871-390-598-476-591-434-148-57-177-641-289-620-227-114-444-680-744-4-1-58"
       gradientUnits="userSpaceOnUse"
       gradientTransform="matrix(0,1.5000006,-1.5241254,0,-16.959842,-23.077676)" />
    <linearGradient
       id="linearGradient2867-449-88-871-390-598-476-591-434-148-57-177-641-289-620-227-114-444-680-744-4-1-58">
      <stop
         id="stop5430-5-0-1"
         style="stop-color:#737373;stop-opacity:1"
         offset="0" />
      <stop
         id="stop5432-2-0-9"
         style="stop-color:#636363;stop-opacity:1"
         offset="0.26238" />
      <stop
         id="stop5434-9-6-5"
         style="stop-color:#4b4b4b;stop-opacity:1"
         offset="0.704952" />
      <stop
         id="stop5436-2-7-3"
         style="stop-color:#3f3f3f;stop-opacity:1"
         offset="1" />
    </linearGradient>
    <radialGradient
       cx="16.202444"
       cy="-19.005346"
       r="19.99999"
       fx="16.202444"
       fy="-19.005346"
       id="radialGradient3081"
       xlink:href="#linearGradient2867-449-88-871-390-598-476-591-434-148-57-177-641-289-620-227-114-444-680-744-4-1-9"
       gradientUnits="userSpaceOnUse"
       gradientTransform="matrix(0,1.5000006,-1.5241254,0,0.040158,-24.077898)" />
  </defs>
  <metadata
     id="metadata4529">
    <rdf:RDF>
      <cc:Work
         rdf:about="">
        <dc:format>image/svg+xml</dc:format>
        <dc:type
           rdf:resource="http://purl.org/dc/dcmitype/StillImage" />
        <dc:title />
      </cc:Work>
    </rdf:RDF>
  </metadata>
  <path
     d="M 10.054543,2.0025296 C 9.8399378,1.9939496 9.6394143,2.0902346 9.4815502,2.248098 L 3.2604836,8.3327373 c -0.128264,0.128264 -0.208392,0.2767305 -0.245568,0.4365661 -0.0191,0.082101 -0.03256,0.1635891 -0.02729,0.2455684 -0.0015,0.026447 -0.0011,0.055217 0,0.081856 0.0083,0.048005 0.01027,0.090807 0.02729,0.1364269 0.03549,0.1648194 0.113542,0.3318243 0.245569,0.4638515 l 6.2210652,6.0846398 c 0.3157281,0.315728 0.8312332,0.287467 1.1732712,-0.05457 l 1.227842,-1.227842 c 0.342039,-0.342038 0.3703,-0.884829 0.05457,-1.200557 L 9.3996937,11 15.129624,11 c 0.483715,0 0.873132,-0.62828 0.873132,-1.1119952 l 0,-1.7462643 c 0,-0.4837152 -0.389417,-0.8731319 -0.873132,-0.8731319 l -5.7572157,0 2.5648267,-2.5648255 C 12.252963,4.3880545 12.224702,3.8725492 11.882664,3.5305109 L 10.654822,2.2753834 C 10.483802,2.1043642 10.269149,2.0111138 10.054543,2.0025296 z"
     id="rect3811-1-7"
     style="opacity:0.35;color:#000000;fill:#ffffff;fill-opacity:1;fill-rule:nonzero;stroke:none;stroke-width:1;marker:none;visibility:visible;display:inline;overflow:visible;enable-background:accumulate" />
  <path
     d="M 10.039953,0.99005125 C 9.827844,0.98156125 9.6296526,1.0768055 9.4736245,1.232959 L 3.1637566,7.3504628 c -0.126772,0.1268743 -0.205968,0.2737323 -0.242712,0.4318361 -0.01887,0.081211 -0.03218,0.1618167 -0.02697,0.2429078 -0.0015,0.026161 -0.001,0.054619 0,0.080969 0.0082,0.047485 0.01015,0.089823 0.02697,0.1349488 0.03508,0.1630336 0.112221,0.3282291 0.242712,0.4588258 L 9.4736244,14.77699 c 0.3120561,0.312308 0.8295896,0.292184 1.1596256,-0.05398 l 1.213563,-1.272864 c 0.330036,-0.346163 0.365992,-0.875242 0.05394,-1.187549 L 9.6939166,10 15.056011,10 c 0.478089,0 0.862977,-0.6326481 0.862977,-1.1111225 l 0,-1.7273441 C 15.918988,6.6830592 15.534135,6 15.056046,6 L 9.6939166,6 11.900749,3.7608247 C 12.210651,3.4463812 12.184873,2.938599 11.846813,2.6002665 L 10.633251,1.2599487 C 10.46422,1.0907826 10.252063,0.99854245 10.039953,0.99005125 z"
     id="rect3811-1"
     style="color:#000000;fill:url(#radialGradient3896-0);fill-opacity:1;fill-rule:nonzero;stroke:none;stroke-width:1;marker:none;visibility:visible;display:inline;overflow:visible;enable-background:accumulate" />
  <path
     d="M 10.012985,1.5206764 C 9.93952,1.5177264 9.8595532,1.5392834 9.770273,1.6286354 L 3.6215576,7.6473501 c -0.07291,0.072972 -0.115625,0.1602302 -0.13484,0.2429078 -0.01477,0.063532 -10e-4,0.091768 0,0.107959 2.83e-4,0.00899 2.83e-4,0.017996 0,0.02699 0.0067,0.039064 -0.0011,0.01894 0,0.02699 -2.48e-4,0.00449 -7.36e-4,0.00855 0,0.02699 0.01164,0.026005 0.02069,0.053173 0.02697,0.080969 0.02039,0.094763 0.04549,0.1804764 0.107872,0.2429078 L 9.770273,14.421778 c 0.137953,0.138064 0.372275,0.140231 0.566329,-0.05398 l 1.213562,-1.214538 c 0.18599,-0.18614 0.183152,-0.464455 0.05394,-0.593775 L 9.0960718,10.049438 C 8.8647291,9.8118139 9.0613184,9.5081732 9.3927203,9.5 l 5.5011967,0 c 0.247903,0 0.5,-0.2518972 0.5,-0.5 l 0,-2 c 0,-0.2481026 -0.252097,-0.5 -0.5,-0.5 -0.784163,0 -3.618032,0 -5.5281647,0 C 9.0343502,6.491827 8.8377607,6.2385994 9.0691037,6.0009753 L 11.6041,3.4639386 C 11.742052,3.3258756 11.744218,3.0913641 11.55016,2.8971538 L 10.336602,1.6556251 C 10.239333,1.5582782 10.112564,1.5246627 10.012985,1.5206764 z"
     id="path3996"
     style="opacity:0.1;color:#000000;fill:none;stroke:#000000;stroke-width:1;stroke-linecap:round;stroke-linejoin:round;stroke-miterlimit:4;stroke-opacity:1;stroke-dasharray:none;stroke-dashoffset:0;marker:none;visibility:visible;display:inline;overflow:visible;enable-background:accumulate" />
  <path
     d="M 10.039953,2.546287 4.4305996,8.0252066 10.012985,13.504126 10.687187,12.829383 8.5027747,10.643213 C 7.7975416,9.9433345 8.3995462,8.4987217 9.3927203,8.5 l 5.0011967,0 0,-1 -5.0281647,0 C 8.3725786,7.5012779 7.7705746,6.1070795 8.4758067,5.4072008 L 10.687187,3.194041 z"
     id="path3996-3"
     style="opacity:0.02999998;color:#000000;fill:none;stroke:#000000;stroke-width:1;stroke-linecap:butt;stroke-linejoin:miter;stroke-miterlimit:4;stroke-opacity:1;stroke-dasharray:none;stroke-dashoffset:0;marker:none;visibility:visible;display:inline;overflow:visible;enable-background:accumulate" />
  <g
     transform="matrix(-1,0,0,1,21.002756,-4.000222)"
     id="g3069">
    <path
       d="m 18.75,6.0002215 c -0.404,0 -0.75,0.3460007 -0.75,0.75 l 0,11.5000005 c 0,0.403999 0.346,0.75 0.75,0.75 l 1.5,0 c 0.403999,0 0.75,-0.346001 0.75,-0.75 0.0062,-0.0017 0,-11.5000005 0,-11.5000005 0,-0.4039993 -0.346001,-0.75 -0.75,-0.75 z"
       id="path3999-9"
       style="opacity:0.35;color:#000000;fill:#ffffff;fill-opacity:1;fill-rule:nonzero;stroke:none;stroke-width:1;marker:none;visibility:visible;display:inline;overflow:visible;enable-background:accumulate" />
    <path
       d="m 20.012017,6.4836728 -0.528122,0 0,10.0322102 0.532209,0 -0.0041,-10.0322102 z"
       id="path2343"
       style="opacity:0.02999998;fill:none;stroke:#000000;stroke-width:0.9677909;stroke-linecap:square;stroke-linejoin:miter;stroke-miterlimit:4;stroke-opacity:1;stroke-dasharray:none;stroke-dashoffset:0.69999992" />
    <path
       d="M 18.75,6 C 18.346,6 18,6.3460007 18,6.75 l 0,10.499778 c 0,0.403999 0.346,0.75 0.75,0.75 l 1.5,0 c 0.403999,0 0.75,-0.346001 0.75,-0.75 C 21,17.320108 21,6.947025 21,6.75 21,6.3460007 20.653999,6 20.25,6 z"
       id="path3999"
       style="color:#000000;fill:url(#radialGradient3081);fill-opacity:1;fill-rule:nonzero;stroke:none;stroke-width:1;marker:none;visibility:visible;display:inline;overflow:visible;enable-background:accumulate" />
    <path
       d="m 18.75,6.5 c -0.1385,0 -0.25,0.1115 -0.25,0.25 l 0,10.499778 c 0,0.1385 0.1115,0.25 0.25,0.25 l 1.5,0 c 0.1385,0 0.25,-0.1115 0.25,-0.25 C 20.5,17.195258 20.5,6.75 20.5,6.75 20.5,6.6115 20.3885,6.5 20.25,6.5 z"
       id="rect3868"
       style="opacity:0.1;color:#000000;fill:none;stroke:#000000;stroke-width:1;stroke-linecap:round;stroke-linejoin:round;stroke-miterlimit:4;stroke-opacity:1;stroke-dasharray:none;marker:none;visibility:visible;display:inline;overflow:visible;enable-background:accumulate" />
    <path
       d="m 19.53125,7.531 0,8.937528 0.9375,0 0,-8.937528 z"
       id="path4060"
       style="opacity:0.02999998;color:#000000;fill:none;stroke:#000000;stroke-width:1;stroke-linecap:butt;stroke-linejoin:miter;stroke-miterlimit:4;stroke-opacity:1;stroke-dasharray:none;marker:none;visibility:visible;display:inline;overflow:visible;enable-background:accumulate" />
  </g>
</svg>

<svg xmlns="http://www.w3.org/2000/svg" xmlns:xlink="http://www.w3.org/1999/xlink" viewBox="0 0 16 16"><defs><radialGradient cx="16.202" cy="-19.005" r="20" fx="16.202" fy="-19.005" id="c" xlink:href="#a" gradientUnits="userSpaceOnUse" gradientTransform="matrix(0 1.2955 -1.3153 0 -15.262 -22.27)"/><linearGradient id="a"><stop offset="0" stop-color="#737373"/><stop offset=".262" stop-color="#636363"/><stop offset=".705" stop-color="#4b4b4b"/><stop offset="1" stop-color="#3f3f3f"/></linearGradient><linearGradient id="b"><stop offset="0" stop-color="#737373"/><stop offset=".262" stop-color="#636363"/><stop offset=".705" stop-color="#4b4b4b"/><stop offset="1" stop-color="#3f3f3f"/></linearGradient><radialGradient cx="16.202" cy="-19.005" r="20" fx="16.202" fy="-19.005" id="d" xlink:href="#b" gradientUnits="userSpaceOnUse" gradientTransform="matrix(0 1.5 -1.52413 0 .04 -24.078)"/></defs><path d="M10.055 2.003a.772.772 0 0 0-.573.245L3.26 8.333a.9.9 0 0 0-.245.436.845.845 0 0 0-.027.24.86.86 0 0 0 0 .08c.008.05.01.09.027.134a.93.93 0 0 0 .245.464l6.222 6.085c.315.315.83.287 1.173-.055l1.228-1.226c.342-.343.37-.886.054-1.2L9.4 11h5.73c.483 0 .873-.628.873-1.112V8.142a.87.87 0 0 0-.873-.873H9.372l2.565-2.57c.316-.32.288-.83-.054-1.18l-1.228-1.25a.904.904 0 0 0-.6-.27z" opacity=".35" color="#000" fill="#fff" overflow="visible"/><path d="M10.04.99a.762.762 0 0 0-.566.243L3.164 7.35a.89.89 0 0 0-.243.432.837.837 0 0 0-.02.243.875.875 0 0 0 0 .08c.01.05.01.09.03.136a.92.92 0 0 0 .244.46l6.31 6.08c.31.31.83.29 1.16-.05l1.213-1.27c.33-.346.366-.875.054-1.187L9.694 10h5.363c.478 0 .863-.633.863-1.11V7.16c0-.48-.388-1.162-.866-1.162h-5.36L11.9 3.76c.31-.314.285-.82-.053-1.16l-1.214-1.34a.893.893 0 0 0-.593-.27z" color="#000" fill="url(#c)" overflow="visible"/><path d="M10.013 1.52c-.073-.002-.153.02-.243.11L3.622 7.646a.507.507 0 0 0-.135.243c-.015.06 0 .09 0 .1v.026c.006.04 0 .02 0 .027v.027a.43.43 0 0 1 .027.08.46.46 0 0 0 .108.244l6.148 6.02c.138.14.373.14.567-.053l1.213-1.213c.186-.186.183-.464.054-.594l-2.508-2.51c-.23-.24-.035-.544.297-.55h5.5c.25 0 .5-.254.5-.5V7c0-.248-.25-.5-.5-.5H9.367c-.332-.008-.528-.26-.297-.5l2.534-2.536c.138-.138.14-.373-.054-.567l-1.213-1.24a.485.485 0 0 0-.324-.136z" opacity=".1" color="#000" fill="none" stroke="#000" stroke-linecap="round" stroke-linejoin="round" overflow="visible"/><path d="M10.04 2.546l-5.61 5.48 5.583 5.478.674-.675-2.184-2.19c-.705-.7-.103-2.15.89-2.15h5v-1H9.367c-.993 0-1.595-1.393-.89-2.093l2.21-2.213z" opacity=".03" color="#000" fill="none" stroke="#000" overflow="visible"/><path d="M2.253 2c.404 0 .75.346.75.75v11.5c0 .404-.346.75-.75.75h-1.5a.763.763 0 0 1-.75-.75c-.006-.002 0-11.5 0-11.5 0-.404.346-.75.75-.75z" opacity=".35" color="#000" fill="#fff" overflow="visible"/><path d="M.99 2.483h.53v10.033H.986L.99 2.483z" opacity=".03" fill="none" stroke="#000" stroke-width=".968" stroke-linecap="square" stroke-dashoffset=".7"/><path d="M18.75 6a.763.763 0 0 0-.75.75v10.5c0 .404.346.75.75.75h1.5c.404 0 .75-.346.75-.75V6.75a.763.763 0 0 0-.75-.75z" color="#000" fill="url(#d)" overflow="visible" transform="matrix(-1 0 0 1 21.003 -4)"/><path d="M2.253 2.5a.25.25 0 0 1 .25.25v10.5a.25.25 0 0 1-.25.25h-1.5a.25.25 0 0 1-.25-.25V2.75c0-.138.11-.25.25-.25z" opacity=".1" color="#000" fill="none" stroke="#000" stroke-linecap="round" stroke-linejoin="round" overflow="visible"/><path d="M1.472 3.53v8.94H.534V3.53z" opacity=".03" color="#000" fill="none" stroke="#000" overflow="visible"/></svg>
